Icons/Notifications.svg

<svg viewBox="0 0 24 24" xmlns="http://www.w3.org/2000/svg">
  <path d="M21 19v1H3v-1l2-2v-6c0-3.1 2.03-5.83 5-6.71V4a2 2 0 0 1 2-2 2 2 0 0 1 2 2v.29c2.97.88 5 3.61 5 6.71v6l2 2m-7 2a2 2 0 0 1-2 2 2 2 0 0 1-2-2"/>
</svg>

<svg viewBox="0 0 24 24" version="1.1" xmlns="http://www.w3.org/2000/svg" >
    <path d="M21,19V20H3V19L5,17V11C5,7.9 7.03,5.17 10,4.29C10,4.19 10,4.1 10,4A2,2 0 0,1 12,2A2,2 0 0,1 14,4C14,4.1 14,4.19 14,4.29C16.97,5.17 19,7.9 19,11V17L21,19M14,21A2,2 0 0,1 12,23A2,2 0 0,1 10,21" />
</svg>
